SF_Symbols/shield.lefthalf.filled.slash.svg

<?xml version="1.0" encoding="UTF-8"?>
<svg xmlns="http://www.w3.org/2000/svg" xmlns:xlink="http://www.w3.org/1999/xlink" width="24" height="24" viewBox="0 0 24 24" version="1.1">
<g id="surface1">
<path style=" stroke:none;fill-rule:nonzero;fill:rgb(100%,100%,100%);fill-opacity:1;" d="M 3.539062 6.308594 L 3.539062 13.984375 C 3.539062 14.992188 3.6875 15.867188 3.980469 16.609375 C 4.277344 17.351562 4.75 18.042969 5.40625 18.683594 C 6.058594 19.324219 6.921875 19.984375 7.996094 20.667969 C 9.078125 21.351562 10.402344 22.136719 11.96875 23.019531 C 12.105469 23.09375 12.242188 23.148438 12.375 23.183594 C 12.507812 23.21875 12.617188 23.238281 12.707031 23.238281 C 12.792969 23.238281 12.90625 23.21875 13.035156 23.183594 C 13.167969 23.148438 13.304688 23.09375 13.445312 23.019531 C 14.304688 22.53125 15.089844 22.082031 15.792969 21.660156 C 16.507812 21.25 17.148438 20.859375 17.714844 20.492188 L 16.367188 19.136719 C 15.957031 19.402344 15.503906 19.683594 15.011719 19.984375 C 14.519531 20.285156 13.976562 20.617188 13.390625 20.976562 C 13.234375 21.074219 13.105469 21.140625 13.003906 21.175781 C 12.902344 21.21875 12.804688 21.242188 12.71875 21.242188 L 12.71875 15.484375 Z M 20.933594 17.558594 C 21.265625 17.050781 21.503906 16.511719 21.652344 15.9375 C 21.796875 15.363281 21.871094 14.714844 21.871094 13.984375 L 21.871094 5.546875 C 21.871094 4.96875 21.75 4.550781 21.507812 4.300781 C 21.265625 4.050781 20.90625 3.828125 20.4375 3.628906 C 20.179688 3.519531 19.824219 3.378906 19.367188 3.210938 C 18.910156 3.03125 18.40625 2.84375 17.855469 2.648438 C 17.3125 2.441406 16.765625 2.238281 16.214844 2.039062 C 15.660156 1.84375 15.15625 1.660156 14.703125 1.5 C 14.246094 1.339844 13.890625 1.214844 13.632812 1.125 C 13.484375 1.082031 13.332031 1.042969 13.167969 1.015625 C 13.015625 0.976562 12.859375 0.960938 12.707031 0.960938 C 12.550781 0.960938 12.398438 0.976562 12.242188 1.015625 C 12.089844 1.050781 11.9375 1.089844 11.789062 1.125 C 11.453125 1.226562 10.980469 1.386719 10.378906 1.597656 C 9.777344 1.8125 9.125 2.046875 8.425781 2.304688 C 7.726562 2.5625 7.066406 2.8125 6.441406 3.054688 L 12.71875 9.332031 L 12.71875 2.734375 C 12.777344 2.734375 12.839844 2.742188 12.90625 2.757812 C 12.976562 2.773438 13.058594 2.796875 13.148438 2.835938 C 13.476562 2.96875 13.863281 3.117188 14.304688 3.285156 C 14.746094 3.449219 15.210938 3.621094 15.695312 3.804688 C 16.1875 3.980469 16.675781 4.15625 17.160156 4.335938 C 17.65625 4.511719 18.121094 4.679688 18.5625 4.84375 C 19.011719 4.996094 19.40625 5.132812 19.753906 5.25 C 19.902344 5.300781 19.996094 5.375 20.039062 5.46875 C 20.09375 5.566406 20.117188 5.707031 20.117188 5.890625 L 20.117188 13.578125 C 20.117188 14.105469 20.074219 14.582031 19.984375 15 C 19.898438 15.417969 19.753906 15.808594 19.554688 16.167969 Z M 21.78125 22.71875 C 21.953125 22.890625 22.15625 22.972656 22.390625 22.972656 C 22.625 22.972656 22.824219 22.890625 22.984375 22.71875 C 23.15625 22.558594 23.238281 22.359375 23.238281 22.125 C 23.238281 21.890625 23.15625 21.6875 22.984375 21.519531 L 2.394531 0.9375 C 2.222656 0.769531 2.023438 0.683594 1.785156 0.683594 C 1.550781 0.683594 1.347656 0.769531 1.179688 0.9375 C 1.019531 1.09375 0.9375 1.289062 0.9375 1.53125 C 0.9375 1.777344 1.019531 1.976562 1.179688 2.140625 Z M 21.78125 22.71875 "/>
</g>
</svg>

<svg xmlns="http://www.w3.org/2000/svg" width="24" height="24"><path style="stroke:none;fill-rule:nonzero;fill:#fff;fill-opacity:1" d="M3.54 6.309v7.675c0 1.008.147 1.883.44 2.625.297.743.77 1.434 1.426 2.075.653.64 1.516 1.3 2.59 1.984a92.222 92.222 0 0 0 3.973 2.352c.136.074.273.128.406.164.133.035.242.054.332.054.086 0 .2-.02.328-.054.133-.036.27-.09.41-.164.86-.489 1.645-.938 2.348-1.36.715-.41 1.355-.8 1.922-1.168l-1.348-1.355c-.41.265-.863.547-1.355.847l-1.621.993c-.121.082-.25.148-.387.199a.8.8 0 0 1-.285.066v-5.758Zm17.394 11.25c.332-.508.57-1.047.718-1.622.153-.64.227-1.296.22-1.953V5.547c0-.578-.122-.996-.364-1.246s-.602-.473-1.07-.672c-.258-.11-.614-.25-1.07-.418-.458-.18-.962-.367-1.513-.563-.543-.207-1.09-.41-1.64-.609-.555-.195-1.059-.379-1.512-.539l-1.07-.375a3.822 3.822 0 0 0-.465-.11 1.837 1.837 0 0 0-.461-.054c-.156 0-.312.016-.465.055-.152.035-.305.074-.453.109-.336.102-.809.262-1.41.473-.602.214-1.254.449-1.953.707-.7.257-1.36.507-1.985.75l6.278 6.277V2.734a.77.77 0 0 1 .187.024c.07.015.153.039.242.078.329.133.715.281 1.157.45.441.163.906.335 1.39.519.492.175.98.351 1.465.53.496.177.961.345 1.402.509.45.152.844.289 1.192.406.148.05.242.125.285.219.055.097.078.238.078.422v7.687c0 .527-.043 1.004-.133 1.422-.086.418-.23.809-.43 1.168Zm.847 5.16c.16.164.38.258.61.254a.778.778 0 0 0 .593-.254.778.778 0 0 0 .254-.594.823.823 0 0 0-.254-.605L2.394.938a.847.847 0 0 0-.609-.254.845.845 0 0 0-.605.253.793.793 0 0 0-.242.594c0 .246.082.446.242.61Zm0 0"/></svg>
